X:13
T:White Ashes
C:Brian Finnegan ?
D:"Flatfish" by Flook
L:1/8
M:4/4
K:Bb
|: Gee/e/ed2Be | zd2BBgdB | Gee/e/ed2Bc | d/e/fedcBdB   | 
   AcFGGFFc    | zB2cA2GF | AGABBceg    | bdfbgddc     :|
|: gBBBd/e/fgb | ggfdefgb | gBBBd/e/fgb | bc'gffgd2     |
   AGABBceg    | bgdgafcA | AGABBceg    |1 baaggfd/e/f :|2 agabbgfd |

